X: 14929
T: Gavotte
R: barndance
M: 4/4
K: Cdorian
K: Cmin
(3edc de fg eg|fd fe c2 ce|(3edc de fg eg|fd fe c2 cg|
|:ga gf ef g2|(3gfe de fg eg|c2 de fg eg|1 fd fe c2 cg:|2 fd fe c2 c2||

